img/logo.svg

<svg width="208" height="46" viewBox="0 0 208 46" fill="none" xmlns="http://www.w3.org/2000/svg">
<path d="M3 28.1019V4.10449H10.9645C12.5022 4.10449 14.0037 4.35776 15.4736 4.86883C16.9435 5.37537 18.2867 6.11257 19.5078 7.07138C20.729 8.03019 21.7104 9.29655 22.4566 10.8659C23.2029 12.4353 23.5738 14.1811 23.5738 16.1032C23.5738 18.0254 23.2029 19.7711 22.4566 21.3405C21.7104 22.9099 20.729 24.1762 19.5078 25.135C18.2867 26.0938 16.9435 26.8311 15.4736 27.3376C14.0037 27.8441 12.5022 28.1019 10.9645 28.1019H3ZM5.44226 6.27539V25.9356H10.2906C12.0318 25.9356 13.5967 25.6597 14.9852 25.1034C16.3736 24.5516 17.4998 23.8054 18.3591 22.8646C19.2184 21.9284 19.8742 20.8837 20.3265 19.7304C20.7787 18.5771 21.0049 17.3696 21.0049 16.1032C21.0049 14.8369 20.7787 13.6293 20.3265 12.476C19.8742 11.3227 19.2184 10.278 18.3591 9.34178C17.4998 8.40558 16.3781 7.65933 14.9852 7.10304C13.5967 6.55127 12.0318 6.27086 10.2906 6.27086H5.44226V6.27539Z" fill="white"/>
<path d="M70.8231 4.10449V25.9356H82.0078V28.1064H68.3809V4.10449H70.8231Z" fill="white"/>
<path d="M96.5156 21.7973L93.906 28.1019H91.2285L101.599 4.10449H103.973L114.276 28.1019H111.563L108.917 21.7973H96.5156ZM102.721 6.81359L97.4337 19.5586H108.008L102.721 6.81359Z" fill="white"/>
<path d="M125.971 4.10449L133.768 24.9496H133.836L141.633 4.10449H144.243L135.057 28.1019H132.48L123.33 4.10449H125.971Z" fill="white"/>
<path d="M163.633 6.27539V28.1064H161.191V6.27539H153.158V4.10449H171.665V6.27539H163.633Z" fill="white"/>
<path d="M204.441 7.07159C206.815 9.45506 208 12.4672 208 16.1034C208 19.7397 206.815 22.7518 204.441 25.1353C202.066 27.5187 199.086 28.7127 195.49 28.7127C191.899 28.7127 188.914 27.5232 186.54 25.1353C184.165 22.7518 182.98 19.7397 182.98 16.1034C182.98 12.4672 184.165 9.45506 186.54 7.07159C188.919 4.68813 191.899 3.49414 195.495 3.49414C199.086 3.49414 202.071 4.68813 204.441 7.07159ZM202.695 23.5116C204.513 21.49 205.422 19.0206 205.422 16.1034C205.422 13.1863 204.513 10.7124 202.695 8.68168C200.877 6.64646 198.475 5.62885 195.49 5.62885C192.505 5.62885 190.108 6.64646 188.286 8.68168C186.467 10.7169 185.558 13.1908 185.558 16.1034C185.558 19.016 186.467 21.4854 188.286 23.5116C190.104 25.5332 192.505 26.5463 195.49 26.5463C198.475 26.5463 200.877 25.5332 202.695 23.5116Z" fill="white"/>
<path d="M6.93145 43.378V45.3906H6.3028V43.9615H0.735357L0.726311 45.3906H0.0976562L0.106702 43.378H0.427813C0.848424 43.3554 1.13788 43.0208 1.30069 42.3785C1.46351 41.7363 1.56301 40.8272 1.60371 39.6513L1.67608 37.5845H5.97716V43.378H6.93145ZM1.9791 42.1162C1.86151 42.7449 1.66251 43.1655 1.3821 43.378H5.3078V38.1679H2.25951L2.20523 39.7147C2.17357 40.687 2.09669 41.4876 1.9791 42.1162Z" fill="white"/>
<path d="M16.0033 43.378V43.9615H11.4941V37.5845H15.8676V38.1679H12.168V40.4383H15.4651V41.0127H12.168V43.3826H16.0033V43.378Z" fill="white"/>
<path d="M25.6874 37.5846V43.9616H25.0225V38.168H21.9426L21.8702 40.2982C21.8386 41.1801 21.7662 41.8857 21.6577 42.4239C21.5446 42.9621 21.3727 43.3601 21.1421 43.6269C20.9114 43.8892 20.6039 44.0249 20.224 44.0249C20.0611 44.0249 19.8893 44.0023 19.7129 43.9616L19.7672 43.3601C19.8712 43.3827 19.9707 43.3963 20.0657 43.3963C20.3325 43.3963 20.5496 43.2922 20.7169 43.0752C20.8843 42.8626 21.0109 42.5324 21.0968 42.0847C21.1828 41.6369 21.2416 41.049 21.2687 40.3118L21.3592 37.5801H25.6874V37.5846Z" fill="white"/>
<path d="M32.104 43.5909C31.5929 43.3105 31.1904 42.9216 30.901 42.4286C30.6115 41.9356 30.4668 41.3839 30.4668 40.7688C30.4668 40.1537 30.6115 39.6019 30.901 39.109C31.1904 38.616 31.5884 38.2315 32.104 37.9466C32.6151 37.6662 33.1895 37.5215 33.8226 37.5215C34.4558 37.5215 35.0212 37.6617 35.5322 37.9421C36.0388 38.2225 36.4368 38.6069 36.7307 39.1044C37.0202 39.5974 37.1694 40.1537 37.1694 40.7688C37.1694 41.3839 37.0247 41.9356 36.7307 42.4331C36.4413 42.9261 36.0388 43.3151 35.5322 43.5955C35.0257 43.8759 34.4558 44.0161 33.8226 44.0161C33.1895 44.0161 32.6151 43.8759 32.104 43.5909ZM35.184 43.0708C35.591 42.8447 35.9076 42.5281 36.1383 42.1256C36.3689 41.7231 36.4865 41.2708 36.4865 40.7733C36.4865 40.2758 36.3734 39.8235 36.1383 39.421C35.9076 39.0185 35.5865 38.7019 35.184 38.4758C34.7769 38.2496 34.3201 38.1321 33.8181 38.1321C33.3161 38.1321 32.8548 38.2451 32.4477 38.4758C32.0362 38.7019 31.7151 39.0185 31.4799 39.421C31.2447 39.8235 31.1271 40.2758 31.1271 40.7733C31.1271 41.2708 31.2447 41.7231 31.4799 42.1256C31.7151 42.5281 32.0362 42.8447 32.4477 43.0708C32.8593 43.297 33.3161 43.4146 33.8181 43.4146C34.3247 43.4146 34.7769 43.3015 35.184 43.0708Z" fill="white"/>
<path d="M46.7544 41.2026C46.985 41.4649 47.1026 41.8132 47.1026 42.2383C47.1026 42.7901 46.9082 43.2152 46.5147 43.5137C46.1212 43.8122 45.5468 43.9615 44.787 43.9615H41.9648V37.5845H44.6151C45.2936 37.5845 45.8272 37.7247 46.2071 38.0051C46.587 38.2855 46.7815 38.688 46.7815 39.2172C46.7815 39.5745 46.6911 39.8775 46.5102 40.1217C46.3292 40.3659 46.0715 40.5514 45.7458 40.6735C46.189 40.7639 46.5237 40.9403 46.7544 41.2026ZM42.6297 40.47H44.579C45.0719 40.47 45.4473 40.3705 45.7142 40.1715C45.9765 39.9725 46.1122 39.6785 46.1122 39.2986C46.1122 38.9141 45.981 38.6247 45.7142 38.4257C45.4518 38.2267 45.0719 38.1272 44.579 38.1272H42.6297V40.47ZM46.4378 42.1931C46.4378 41.3926 45.886 40.9901 44.787 40.9901H42.6297V43.4233H44.787C45.886 43.4233 46.4378 43.0117 46.4378 42.1931Z" fill="white"/>
<path d="M56.0567 42.2564H52.5064L51.742 43.9615H51.041L53.9536 37.5845H54.6185L57.5356 43.9615H56.8255L56.0567 42.2564ZM55.8079 41.7092L54.2793 38.2855L52.7506 41.7092H55.8079Z" fill="white"/>
<path d="M66.1656 37.5845V43.9615H65.5007V42.0303H63.5967C63.5107 42.0303 63.3886 42.0258 63.2303 42.0122L61.8916 43.9615H61.1725L62.6198 41.8946C62.1539 41.7544 61.7921 41.5057 61.5434 41.1529C61.2946 40.7956 61.168 40.3614 61.168 39.8458C61.168 39.1312 61.3941 38.5749 61.8464 38.1769C62.2986 37.7835 62.9092 37.5845 63.6826 37.5845H66.1656ZM62.3077 41.0308C62.6152 41.3112 63.063 41.4559 63.6509 41.4559H65.5007V38.1679H63.7143C63.1173 38.1679 62.6605 38.3081 62.3348 38.593C62.0092 38.8734 61.8464 39.285 61.8464 39.8277C61.8464 40.3478 62.0001 40.7504 62.3077 41.0308Z" fill="white"/>
<path d="M81.1582 42.2564H77.6079L76.8436 43.9615H76.1426L79.0552 37.5845H79.72L82.6372 43.9615H81.9271L81.1582 42.2564ZM80.914 41.7092L79.3854 38.2855L77.8567 41.7092H80.914Z" fill="white"/>
<path d="M91.8364 41.2026C92.0671 41.4649 92.1847 41.8132 92.1847 42.2383C92.1847 42.7901 91.9902 43.2152 91.5967 43.5137C91.2032 43.8122 90.6289 43.9615 89.869 43.9615H87.0469V37.5845H89.6972C90.3756 37.5845 90.9093 37.7247 91.2892 38.0051C91.6691 38.2855 91.8635 38.688 91.8635 39.2172C91.8635 39.5745 91.7731 39.8775 91.5922 40.1217C91.4113 40.3659 91.1535 40.5514 90.8279 40.6735C91.2666 40.7639 91.6058 40.9403 91.8364 41.2026ZM87.7072 40.47H89.6565C90.1494 40.47 90.5248 40.3705 90.7917 40.1715C91.054 39.9725 91.1897 39.6785 91.1897 39.2986C91.1897 38.9141 91.0585 38.6247 90.7917 38.4257C90.5294 38.2267 90.1494 38.1272 89.6565 38.1272H87.7072V40.47ZM91.5153 42.1931C91.5153 41.3926 90.9635 40.9901 89.8645 40.9901H87.7072V43.4233H89.8645C90.9681 43.4233 91.5153 43.0117 91.5153 42.1931Z" fill="white"/>
<path d="M101.134 38.1679H98.8958V43.9615H98.2309V38.1679H95.9922V37.5845H101.139V38.1679H101.134Z" fill="white"/>
<path d="M106.495 43.5909C105.984 43.3105 105.581 42.9216 105.292 42.4286C105.002 41.9356 104.857 41.3839 104.857 40.7688C104.857 40.1537 105.002 39.6019 105.292 39.109C105.581 38.616 105.979 38.2315 106.495 37.9466C107.006 37.6662 107.58 37.5215 108.213 37.5215C108.846 37.5215 109.412 37.6617 109.923 37.9421C110.429 38.2225 110.827 38.6069 111.121 39.1044C111.411 39.5974 111.56 40.1537 111.56 40.7688C111.56 41.3839 111.415 41.9356 111.121 42.4331C110.832 42.9261 110.429 43.3151 109.923 43.5955C109.416 43.8759 108.846 44.0161 108.213 44.0161C107.58 44.0161 107.01 43.8759 106.495 43.5909ZM109.579 43.0708C109.986 42.8447 110.303 42.5281 110.533 42.1256C110.764 41.7231 110.882 41.2708 110.882 40.7733C110.882 40.2758 110.769 39.8235 110.533 39.421C110.303 39.0185 109.982 38.7019 109.579 38.4758C109.172 38.2496 108.715 38.1321 108.213 38.1321C107.711 38.1321 107.25 38.2451 106.843 38.4758C106.431 38.7019 106.11 39.0185 105.875 39.421C105.64 39.8235 105.522 40.2758 105.522 40.7733C105.522 41.2708 105.64 41.7231 105.875 42.1256C106.11 42.5281 106.431 42.8447 106.843 43.0708C107.254 43.297 107.711 43.4146 108.213 43.4146C108.72 43.4146 109.172 43.3015 109.579 43.0708Z" fill="white"/>
<path d="M122.979 37.5845V43.9615H122.333V38.8599L119.827 43.1519H119.506L117 38.887V43.9615H116.354V37.5845H116.91L119.678 42.3107L122.418 37.5845H122.979Z" fill="white"/>
<path d="M132.397 42.2564H128.846L128.082 43.9615H127.381L130.293 37.5845H130.958L133.875 43.9615H133.165L132.397 42.2564ZM132.152 41.7092L130.624 38.2855L129.095 41.7092H132.152Z" fill="white"/>
<path d="M142.138 38.1679H139.9V43.9615H139.235V38.1679H136.996V37.5845H142.143V38.1679H142.138Z" fill="white"/>
<path d="M146.506 37.5845H147.171V42.867L151.25 37.5845H151.861V43.9615H151.196V38.688L147.116 43.9615H146.506V37.5845Z" fill="white"/>
<path d="M160.961 41.1892C161.201 41.4605 161.323 41.7907 161.323 42.1706C161.323 42.5415 161.205 42.8671 160.974 43.1475C160.744 43.4279 160.436 43.6405 160.056 43.7897C159.676 43.939 159.256 44.0114 158.808 44.0114C158.383 44.0114 157.967 43.9435 157.555 43.8078C157.144 43.6721 156.777 43.4686 156.447 43.1927L156.691 42.7088C156.972 42.944 157.288 43.1249 157.646 43.2515C158.003 43.3782 158.365 43.437 158.731 43.437C159.079 43.437 159.396 43.3827 159.686 43.2741C159.975 43.1656 160.21 43.0073 160.382 42.8038C160.554 42.6003 160.64 42.3606 160.64 42.0802C160.64 41.7093 160.495 41.4244 160.201 41.2254C159.912 41.0264 159.5 40.9223 158.971 40.9223H157.605V40.3751H158.935C159.382 40.3751 159.735 40.2801 159.989 40.0902C160.242 39.9002 160.368 39.6334 160.368 39.2942C160.368 38.9188 160.206 38.6203 159.885 38.4077C159.563 38.1906 159.161 38.0866 158.672 38.0866C158.369 38.0866 158.062 38.1318 157.754 38.2178C157.447 38.3037 157.148 38.4394 156.872 38.6158L156.646 38.0595C157.279 37.6841 157.962 37.4941 158.695 37.4941C159.125 37.4941 159.523 37.562 159.88 37.7022C160.237 37.8424 160.522 38.0414 160.73 38.3037C160.938 38.566 161.042 38.8736 161.042 39.2218C161.042 39.561 160.947 39.855 160.762 40.0992C160.572 40.3434 160.31 40.5198 159.97 40.6238C160.391 40.7279 160.717 40.9178 160.961 41.1892Z" fill="white"/>
<path d="M170.266 42.2564H166.715L165.951 43.9615H165.25L168.163 37.5845H168.827L171.745 43.9615H171.035L170.266 42.2564ZM170.017 41.7092L168.488 38.2855L166.96 41.7092H170.017Z" fill="white"/>
<path d="M182.345 43.378V45.454H181.716V43.9615H176.148V37.5845H176.813V43.378H180.667V37.5845H181.331V43.378H182.345Z" fill="white"/>
<path d="M186.871 37.5845H187.536V42.867L191.615 37.5845H192.226V43.9615H191.561V38.688L187.482 43.9615H186.871V37.5845Z" fill="white"/>
<path d="M202.082 37.5845V43.9615H201.417V42.0303H199.513C199.427 42.0303 199.305 42.0258 199.146 42.0122L197.808 43.9615H197.089L198.536 41.8946C198.07 41.7544 197.708 41.5057 197.459 41.1529C197.211 40.7956 197.084 40.3614 197.084 39.8458C197.084 39.1312 197.31 38.5749 197.762 38.1769C198.215 37.7835 198.825 37.5845 199.599 37.5845H202.082ZM198.224 41.0308C198.531 41.3112 198.979 41.4559 199.567 41.4559H201.417V38.1679H199.63C199.033 38.1679 198.576 38.3081 198.251 38.593C197.925 38.8734 197.762 39.285 197.762 39.8277C197.762 40.3478 197.916 40.7504 198.224 41.0308Z" fill="white"/>
<path d="M30.4473 1H62.0003" stroke="#E85B0D" stroke-width="2" stroke-miterlimit="10"/>
<path d="M30.4473 15.2695H62.0003" stroke="#E85B0D" stroke-width="2" stroke-miterlimit="10"/>
<path d="M30.4473 30.0337H62.0003" stroke="#E85B0D" stroke-width="2" stroke-miterlimit="10"/>
</svg>

<svg version="1.2" xmlns="http://www.w3.org/2000/svg" viewBox="0 0 208 46" width="208" height="46">
	<title>logo-svg</title>
	<style>
		.s0 { fill: #ffffff } 
	</style>
	<path id="Layer" fill-rule="evenodd" class="s0" d="m3 28.1v-24h8q2.3 0 4.5 0.8 2.2 0.7 4 2.2 1.8 1.4 3 3.8 1.1 2.3 1.1 5.2 0 2.9-1.1 5.2-1.2 2.4-3 3.8-1.8 1.5-4 2.2-2.2 0.8-4.5 0.8zm2.4-2.2h4.9q2.6 0 4.6-0.8 2.1-0.8 3.4-2.2 1.3-1.4 2-3.2 0.7-1.7 0.7-3.6 0-1.9-0.7-3.6-0.7-1.8-2-3.2-1.3-1.4-3.4-2.2-2-0.8-4.6-0.8h-4.9z"/>
	<path id="Layer" class="s0" d="m70.8 4.1v21.8h11.2v2.2h-13.6v-24z"/>
	<path id="Layer" fill-rule="evenodd" class="s0" d="m96.5 21.8l-2.6 6.3h-2.7l10.4-24h2.4l10.3 24h-2.7l-2.7-6.3zm6.2-15l-5.3 12.8h10.6z"/>
	<path id="Layer" class="s0" d="m126 4.1l7.8 20.8 7.8-20.8h2.6l-9.1 24h-2.6l-9.2-24z"/>
	<path id="Layer" class="s0" d="m163.6 6.3v21.8h-2.4v-21.8h-8v-2.2h18.5v2.2z"/>
	<path id="Layer" fill-rule="evenodd" class="s0" d="m204.4 7.1q3.6 3.5 3.6 9 0 5.5-3.6 9-3.5 3.6-8.9 3.6-5.4 0-9-3.6-3.5-3.5-3.5-9 0-5.5 3.5-9 3.6-3.6 9-3.6 5.4 0 8.9 3.6zm-1.7 16.4q2.7-3 2.7-7.4 0-4.4-2.7-7.4-2.7-3.1-7.2-3.1-4.5 0-7.2 3.1-2.7 3-2.7 7.4 0 4.4 2.7 7.4 2.7 3 7.2 3 4.5 0 7.2-3z"/>
	<path id="Layer" fill-rule="evenodd" class="s0" d="m6.9 43.4v2h-0.6v-1.4h-5.6v1.4h-0.6v-2h0.3q0.7-0.1 0.9-1 0.2-1 0.3-2.7l0.1-2.1h4.3v5.8zm-5-1.3q-0.2 1-0.6 1.3h4v-5.2h-3.1v1.5q-0.1 1.5-0.3 2.4z"/>
	<path id="Layer" class="s0" d="m16 43.4v0.6h-4.5v-6.4h4.4v0.6h-3.7v2.2h3.3v0.6h-3.3v2.4h3.8z"/>
	<path id="Layer" class="s0" d="m25.7 37.6v6.4h-0.7v-5.8h-3.1v2.1q-0.1 1.3-0.2 2.1-0.2 0.8-0.6 1.2-0.3 0.4-0.9 0.4-0.2 0-0.5 0l0.1-0.6q0.1 0 0.3 0 0.4 0 0.6-0.3 0.3-0.3 0.4-1 0.1-0.7 0.2-1.8l0.1-2.7h4.3z"/>
	<path id="Layer" fill-rule="evenodd" class="s0" d="m32.1 43.6q-0.8-0.4-1.2-1.2-0.4-0.7-0.4-1.6 0-1 0.4-1.7 0.4-0.7 1.2-1.2 0.8-0.4 1.7-0.4 1 0 1.7 0.4 0.8 0.5 1.2 1.2 0.5 0.7 0.5 1.7 0 0.9-0.5 1.6-0.4 0.8-1.2 1.2-0.7 0.4-1.7 0.4-0.9 0-1.7-0.4zm3.1-0.5q0.6-0.4 0.9-1 0.4-0.6 0.4-1.3 0-0.8-0.4-1.4-0.3-0.6-0.9-0.9-0.6-0.4-1.4-0.4-0.7 0-1.4 0.4-0.6 0.3-0.9 0.9-0.4 0.6-0.4 1.4 0 0.7 0.4 1.3 0.3 0.6 0.9 1 0.7 0.3 1.4 0.3 0.8 0 1.4-0.3z"/>
	<path id="Layer" fill-rule="evenodd" class="s0" d="m46.8 41.2q0.3 0.4 0.3 1 0 0.9-0.6 1.3-0.6 0.5-1.7 0.5h-2.8v-6.4h2.6q1 0 1.6 0.4 0.6 0.4 0.6 1.2 0 0.6-0.3 0.9-0.3 0.4-0.8 0.6 0.7 0.1 1.1 0.5zm-4.2-0.7h2q0.7 0 1.1-0.3 0.4-0.3 0.4-0.9 0-0.6-0.4-0.9-0.4-0.3-1.1-0.3h-2zm3.8 1.8q0-1.3-1.6-1.3h-2.2v2.5h2.2q1.6 0 1.6-1.2z"/>
	<path id="Layer" fill-rule="evenodd" class="s0" d="m56.1 42.3h-3.6l-0.8 1.7h-0.7l3-6.4h0.6l2.9 6.4h-0.7zm-0.2-0.6l-1.6-3.4-1.5 3.4z"/>
	<path id="Layer" fill-rule="evenodd" class="s0" d="m66.2 37.6v6.4h-0.7v-2h-1.9q-0.1 0-0.4 0l-1.3 2h-0.7l1.4-2.1q-0.7-0.2-1.1-0.7-0.3-0.6-0.3-1.4 0-1 0.6-1.6 0.7-0.6 1.9-0.6zm-3.9 3.4q0.5 0.5 1.4 0.5h1.8v-3.3h-1.8q-0.9 0-1.3 0.4-0.5 0.4-0.5 1.2 0 0.8 0.4 1.2z"/>
	<path id="Layer" fill-rule="evenodd" class="s0" d="m81.2 42.3h-3.6l-0.8 1.7h-0.7l3-6.4h0.6l2.9 6.4h-0.7zm-0.2-0.6l-1.5-3.4-1.6 3.4z"/>
	<path id="Layer" fill-rule="evenodd" class="s0" d="m91.8 41.2q0.4 0.4 0.4 1 0 0.9-0.6 1.3-0.6 0.5-1.7 0.5h-2.9v-6.4h2.7q1 0 1.6 0.4 0.6 0.4 0.6 1.2 0 0.6-0.3 0.9-0.3 0.4-0.8 0.6 0.7 0.1 1 0.5zm-4.1-0.7h2q0.7 0 1.1-0.3 0.4-0.3 0.4-0.9 0-0.6-0.4-0.9-0.4-0.3-1.1-0.3h-2zm3.8 1.8q0-1.3-1.6-1.3h-2.2v2.5h2.2q1.6 0 1.6-1.2z"/>
	<path id="Layer" class="s0" d="m101.1 38.2h-2.2v5.8h-0.7v-5.8h-2.2v-0.6h5.1v0.6z"/>
	<path id="Layer" fill-rule="evenodd" class="s0" d="m106.5 43.6q-0.8-0.4-1.2-1.2-0.4-0.7-0.4-1.6 0-1 0.4-1.7 0.4-0.7 1.2-1.2 0.8-0.4 1.7-0.4 1 0 1.7 0.4 0.8 0.5 1.2 1.2 0.5 0.7 0.5 1.7 0 0.9-0.5 1.6-0.4 0.8-1.2 1.2-0.7 0.4-1.7 0.4-0.9 0-1.7-0.4zm3.1-0.5q0.6-0.4 0.9-1 0.4-0.6 0.4-1.3 0-0.8-0.4-1.4-0.3-0.6-0.9-0.9-0.6-0.4-1.4-0.4-0.7 0-1.4 0.4-0.6 0.3-0.9 0.9-0.4 0.6-0.4 1.4 0 0.7 0.4 1.3 0.3 0.6 0.9 1 0.7 0.3 1.4 0.3 0.8 0 1.4-0.3z"/>
	<path id="Layer" class="s0" d="m123 37.6v6.4h-0.7v-5.1l-2.5 4.3h-0.3l-2.5-4.3v5.1h-0.6v-6.4h0.5l2.8 4.7 2.7-4.7z"/>
	<path id="Layer" fill-rule="evenodd" class="s0" d="m132.4 42.3h-3.6l-0.7 1.7h-0.7l2.9-6.4h0.7l2.9 6.4h-0.7zm-0.3-0.6l-1.5-3.4-1.5 3.4z"/>
	<path id="Layer" class="s0" d="m142.1 38.2h-2.2v5.8h-0.7v-5.8h-2.2v-0.6h5.1v0.6z"/>
	<path id="Layer" class="s0" d="m146.5 37.6h0.7v5.3l4-5.3h0.7v6.4h-0.7v-5.3l-4.1 5.3h-0.6z"/>
	<path id="Layer" class="s0" d="m161 41.2q0.3 0.4 0.3 1 0 0.5-0.3 0.9-0.4 0.5-0.9 0.7-0.6 0.2-1.3 0.2-0.6 0-1.2-0.2-0.7-0.2-1.2-0.6l0.3-0.5q0.4 0.4 0.9 0.6 0.6 0.1 1.1 0.1 0.6 0 1-0.1 0.4-0.2 0.7-0.5 0.2-0.3 0.2-0.7 0-0.6-0.4-0.9-0.4-0.3-1.2-0.3h-1.4v-0.5h1.3q0.7 0 1.1-0.3 0.4-0.3 0.4-0.8 0-0.6-0.5-0.9-0.5-0.3-1.2-0.3-0.5 0-0.9 0.1-0.5 0.1-0.9 0.4l-0.3-0.5q1-0.6 2.1-0.6 0.6 0 1.2 0.2 0.5 0.2 0.8 0.6 0.3 0.4 0.3 0.9 0 0.5-0.2 0.9-0.3 0.4-0.8 0.5 0.6 0.2 1 0.6z"/>
	<path id="Layer" fill-rule="evenodd" class="s0" d="m170.3 42.3h-3.6l-0.8 1.7h-0.7l3-6.4h0.6l2.9 6.4h-0.7zm-0.2-0.6l-1.5-3.4-1.6 3.4z"/>
	<path id="Layer" class="s0" d="m182.3 43.4v2.1h-0.6v-1.5h-5.6v-6.4h0.7v5.8h3.9v-5.8h0.6v5.8z"/>
	<path id="Layer" class="s0" d="m186.9 37.6h0.6v5.3l4.1-5.3h0.6v6.4h-0.6v-5.3l-4.1 5.3h-0.6z"/>
	<path id="Layer" fill-rule="evenodd" class="s0" d="m202.1 37.6v6.4h-0.7v-2h-1.9q-0.1 0-0.4 0l-1.3 2h-0.7l1.4-2.1q-0.7-0.2-1-0.7-0.4-0.6-0.4-1.4 0-1 0.7-1.6 0.6-0.6 1.8-0.6zm-3.9 3.4q0.5 0.5 1.4 0.5h1.8v-3.3h-1.8q-0.8 0-1.3 0.4-0.5 0.4-0.5 1.2 0 0.8 0.4 1.2z"/>
</svg>
